X:1
T:Title
T:Remember
T:Irving Berlin
C:Composer
L:1/8
M:4/4
K:Ab
V:1 treble nm="Piano" snm="Pno."
V:1
 A |"Dbmaj7" FA z2 z2 Fc |"C7" z4 z B3 |"B7" A2 z2 AFAc |"Bb7" z4 z A3 |"Bbm7" F2 z2 z2 z A | %6
"Eb7" =E2 z2 z2 z _E |"Abmaj7" ce z2 z4 |"Ebm7" z4"Ab7" z2 z A |"Dbmaj7" F4 A2 Fc |"C7" z4 z B3 | %11
"B7" A2 z2 AFAc |"Bb7" z4 z2 z A |"Bbm7" F6- FA |"Eb7" =E2 z2 z2 z _E |"Abmaj7" ce- e2- e2 z2 | %16
"Ebm7" z4"Ab7" z2 d2 |"Dbmaj7" f4 a2 fa- | a4 z2 d2 |"Dbm7" f2 z2 e2 Ad | %20
"Gb7" z2 e/=e/_e/d/ A=E_ED |"Ab" C2 z c e2 ce- | e6 cB |"Gm7b5" z4 BABc |"C7b9" z4 z2 z A | %25
"Db" FA z2 z2 Fc |"C7" z4 z B3 |"B7" A2 z2 AFAc |"Bb7" z4 z A3 |"Bbm7" F2 z2 z2 z A | %30
"Eb7" =E2 z2 z2 z _E |"Ab" cA z2 z4 |"Ebm7""Ab7" z8 |] %33

